!! 00000] TT[00
!! NN
!!!OTL: Kan huagu
!!!ARE: Asia, China,ÿHubei, Zigui
!! Ethnic Group: Han
!! I, 453
!!!SCT: C0114
!!!YEM: Copyright 1995, estate of Helmut Schaffrath.
**kern
*ICvox
*Ivox
*M2/4
*k[b-e-a-]
*E-:
{8cc
8cc
8b-
8b-
=1
8cc
8cc
4g
=2
8g
8cc
8b-
16g
16b-
=3
8f
16g
16f
8e-
8c}
=4
{8.f
16g
4b-
=5
8cc
8g
4g
=6
8f
8b-
8f
16g
16f
=7
4c
4c}
=8
{8e-
16c
16e-
8e-
8c
=9
8.f
16g
8b-
8b-
=10
8b-
8g
8f
8e-
=11
4e-
4c}
=12
{4b-
8.cc
16b-
=13
8b-
8g
4g
=14
8b-
8f
4f
=15
8e-
4.c}
=16
{8cc
8cc
4b-
=17
8cc
16cc
16b-
4g
=18
8cc
8cc
8b-
8g
=19
8f
16g
16f
8e-
8c}
=20
{8.f
16g
4b-
=21
8cc
16cc
16b-
4g
=22
8b-
8f
4f
=23
2c}
=24
{16c
16e-
16c
16e-
8.e-
16c
=25
8f
8g
8b-
8b-
=26
8b-
8g
8f
8e-
=27
8e-
8c
4c}
=28
{4b-
8cc
16b-
16b-
=29
8b-
8g
8g
16f
16g
=30
8b-
8f
4f
=31
8e-
4.c}
==
!!!AGN: Wuge, Dengdiao, Huaguzi
!! Inhaltsstichwort: Lampe am anderen Berg
!!    Wenig Verzierungen.
!!!ONB: ESAC (Essen Associative Code) Database: CHINA
!!!AMT: simple duple
!!!AIN: vox
!!!EED: Helmut Schaffrath
!!!EEV: 1.0
*-
